!!!OTL: Ruf um fruchtbares Wetter.
!!!ARE: Europa, Mitteleuropa, Deutschland
!!!SCT: A0575
!!!TXL: @@DE, (@@LAT)
!!!YEM: Copyright 1995, estate of Helmut Schaffrath.
**kern	**text
*M4/2	*
*met(c|)	*
*clefC3	*
*k[]	*
*G:	*
=1	=1
!LO:TX:a:t=Mod.?	!
{1G	Je-
2G	-ſum
2G	und
=2	=2
2A	ſei-
2c/	-ne
2d	Mut-
2d	-ter
=3	=3
1c}	ʒart
{2d	[Ky-
2f	-ri-
=4	=4
2e	-e
2d	e-
*lig	*
4c/	-lei-
4A	.
2B	.
*Xlig	*
=5	=5
1A	-son!]
2r}	.
{2c	ruf-
=6	=6
2c	-fen
2c	wir
2d	an
2c	ʒu
=7	=7
2B-	die-
2G	-ſer
1F	fahrt.
=8	=8
2r}	.
{2G	[A-
2.A	-ve,
4B	.
=9	=9
2.c/	A-
4BL	-ve
4AJ	.
2B-	Ma-
2A	-ri-
=10	=10
0G/ll}	-a!]
==	==
!!!GTL: Geistliche Volkslieder
!!!AGN: Romanze, Ballade, Lied, religioeses Lied
!! Andernacher Gsgb Coelln 1608 S. 278
!!!ONB: ESAC (Essen Associative Code) Database: ALTDEU
!!!AMT: simple quadruple
!!!AIN: vox
!!!EED: Helmut Schaffrath
!!!EEV: 1.0
!!!RDF**kern: l = terminal long
!!!URL-scan: https://rosdok.uni-rostock.de/mcrviewer/recordIdentifier/rosdok_ppn738218359/iview2/phys_0758.iview2?x=-171.61612513683053&y=935.969753856305&scale=0.5692057392176044&rotation=0&layout=singlePageLayout&logicalDiv=log_0021
!!!ENC: Anna Maria Matuszewska
!!!EEV: 2024/21/03
*-	*-
